polaris-icons/icons/new-icons/CollectionsMajor.svg

<svg width="20" height="20" viewBox="0 0 20 20" fill="none" xmlns="http://www.w3.org/2000/svg">
<path d="M11.5 7.5C12.0523 7.5 12.5 7.05228 12.5 6.5C12.5 5.94772 12.0523 5.5 11.5 5.5C10.9477 5.5 10.5 5.94772 10.5 6.5C10.5 7.05228 10.9477 7.5 11.5 7.5Z" fill="#4A4A4A"/>
<path fill-rule="evenodd" clip-rule="evenodd" d="M7.51692 4.09835C8.22018 3.39509 9.17401 3 10.1686 3H12.25C13.7688 3 15 4.23122 15 5.75V8.03854C15 8.9005 14.6576 9.72714 14.0481 10.3366L9.84184 14.5429C8.86553 15.5192 7.28262 15.5192 6.30631 14.5429L3.63389 11.8705C2.55995 10.7965 2.55994 9.05532 3.63389 7.98138L7.51692 4.09835ZM10.1686 4.5C9.57183 4.5 8.99954 4.73705 8.57758 5.15901L4.69455 9.04204C4.20639 9.5302 4.20639 10.3217 4.69455 10.8098L7.36697 13.4822C7.75749 13.8728 8.39066 13.8728 8.78118 13.4822L12.9874 9.27598C13.3156 8.94779 13.5 8.50267 13.5 8.03854V5.75C13.5 5.05965 12.9404 4.5 12.25 4.5H10.1686Z" fill="#4A4A4A"/>
<path d="M16.75 5.5C17.1642 5.5 17.5 5.83579 17.5 6.25V9.2786C17.5 10.1482 17.1515 10.9815 16.5325 11.5922L11.7767 16.2839C11.4819 16.5748 11.007 16.5716 10.7161 16.2767C10.4252 15.9819 10.4284 15.507 10.7233 15.2161L15.479 10.5244C15.8123 10.1956 16 9.74684 16 9.2786V6.25C16 5.83579 16.3358 5.5 16.75 5.5Z" fill="#4A4A4A"/>
</svg>

<svg viewBox="0 0 20 20" xmlns="http://www.w3.org/2000/svg"><path d="M11.5 7.5a1 1 0 1 0 0-2 1 1 0 0 0 0 2Z" fill="#5C5F62"/><path fill-rule="evenodd" d="M7.517 4.098a3.75 3.75 0 0 1 2.652-1.098h2.081a2.75 2.75 0 0 1 2.75 2.75v2.289a3.25 3.25 0 0 1-.952 2.298l-4.206 4.206a2.5 2.5 0 0 1-3.536 0l-2.672-2.672a2.75 2.75 0 0 1 0-3.89l3.883-3.883Zm2.652.402a2.25 2.25 0 0 0-1.591.659l-3.883 3.883a1.25 1.25 0 0 0 0 1.768l2.672 2.672a1 1 0 0 0 1.414 0l4.206-4.206a1.75 1.75 0 0 0 .513-1.237v-2.289c0-.69-.56-1.25-1.25-1.25h-2.081Z" fill="#5C5F62"/><path d="M16.75 5.5a.75.75 0 0 1 .75.75v3.029a3.25 3.25 0 0 1-.968 2.313l-4.755 4.692a.75.75 0 1 1-1.054-1.068l4.756-4.692a1.75 1.75 0 0 0 .521-1.245v-3.029a.75.75 0 0 1 .75-.75Z" fill="#5C5F62"/></svg>
